front/assets/images/icone-copie-lien.svg

<svg width="24" height="24" viewBox="0 0 24 24" fill="none" xmlns="http://www.w3.org/2000/svg">
    <path fill-rule="evenodd" clip-rule="evenodd" d="M12.8894 7.93852L14.3044 9.35352C15.6173 10.6663 16.3549 12.4469 16.3549 14.3035C16.3549 16.1602 15.6173 17.9407 14.3044 19.2535L13.9504 19.6065C11.2165 22.3403 6.78417 22.3403 4.05036 19.6065C1.31655 16.8727 1.31655 12.4403 4.05036 9.70652L5.46536 11.1215C4.19301 12.3828 3.6927 14.2284 4.15386 15.9595C4.61502 17.6907 5.96716 19.0429 7.69833 19.504C9.4295 19.9652 11.2751 19.4649 12.5364 18.1925L12.8904 17.8385C14.8423 15.886 14.8423 12.721 12.8904 10.7685L11.4754 9.35352L12.8904 7.93952L12.8894 7.93852ZM18.1934 12.5355C19.4657 11.2743 19.966 9.42866 19.5049 7.69749C19.0437 5.96632 17.6916 4.61418 15.9604 4.15302C14.2292 3.69186 12.3836 4.19217 11.1224 5.46452L10.7684 5.81852C8.81645 7.77102 8.81645 10.936 10.7684 12.8885L12.1834 14.3035L10.7684 15.7175L9.35436 14.3035C8.04145 12.9907 7.30385 11.2102 7.30385 9.35352C7.30385 7.49688 8.04145 5.71629 9.35436 4.40352L9.70836 4.05052C11.4768 2.28205 14.0544 1.59139 16.4702 2.23869C18.886 2.88599 20.7729 4.77292 21.4202 7.18869C22.0675 9.60446 21.3768 12.1821 19.6084 13.9505L18.1934 12.5355Z" fill="#0D0C21"/>
</svg>

<svg xmlns="http://www.w3.org/2000/svg" width="24" height="24" fill="none"><path fill="#0D0C21" fill-rule="evenodd" d="m12.89 7.939 1.414 1.415a7 7 0 0 1 0 9.9l-.354.352a7 7 0 0 1-9.9-9.9l1.415 1.415a5 5 0 1 0 7.071 7.071l.354-.354a5 5 0 0 0 0-7.07l-1.415-1.414zm5.303 4.597a5 5 0 1 0-7.07-7.071l-.355.354a5 5 0 0 0 0 7.07l1.415 1.415-1.415 1.413-1.414-1.414a7 7 0 0 1 0-9.9l.354-.352a7 7 0 0 1 9.9 9.9z" clip-rule="evenodd"/></svg>
